src/pages/elements/pictograms/images/18_In-Context_2.svg

<?xml version="1.0" encoding="UTF-8"?>
<svg width="288px" height="288px" viewBox="0 0 288 288" version="1.1" xmlns="http://www.w3.org/2000/svg" xmlns:xlink="http://www.w3.org/1999/xlink">
    <!-- Generator: Sketch 52.6 (67491) - http://www.bohemiancoding.com/sketch -->
    <title>Artboard Copy 81</title>
    <desc>Created with Sketch.</desc>
    <defs>
        <linearGradient x1="109.448408%" y1="-6.51567584%" x2="-9.86057083%" y2="101.817423%" id="linearGradient-1">
            <stop stop-color="#009C98" offset="0%"></stop>
            <stop stop-color="#0062FF" offset="100%"></stop>
        </linearGradient>
    </defs>
    <g id="Artboard-Copy-81" stroke="none" stroke-width="1" fill="none" fill-rule="evenodd">
        <rect id="Rectangle-Copy-10" fill="#171717" fill-rule="nonzero" x="0" y="0" width="288" height="288"></rect>
        <g id="Group-4-Copy-12" transform="translate(64.000000, 64.000000)">
            <polygon id="Fill-1" points="0 160 160 160 160 0 0 0"></polygon>
            <path d="M130.6055,117.0315 C127.5255,110.6065 122.9105,107.9965 114.7005,108.1415 L109.6755,108.1965 C103.6405,108.1965 101.8005,106.2865 101.8005,100.0015 C101.8005,99.0065 100.9955,98.1965 100.0005,98.1965 C99.0055,98.1965 98.2005,99.0065 98.2005,100.0015 C98.2005,108.2715 101.6305,111.8015 109.6955,111.8015 L114.7405,111.7415 C122.2655,111.5515 125.4255,113.7115 127.9205,119.7765 C128.0805,120.6665 128.2005,121.5615 128.2005,122.5015 C128.2005,129.5815 123.3455,135.6765 116.6355,137.5115 C116.2455,132.1965 114.5605,128.1315 111.2355,125.0065 C110.5155,124.3265 109.3755,124.3565 108.6955,125.0765 C108.0105,125.8065 108.0455,126.9415 108.7705,127.6215 C111.5855,130.2715 112.9105,133.7265 113.1155,138.5465 L112.9855,139.5365 C111.9655,147.3265 105.3055,153.1965 97.5005,153.1965 C93.8205,153.1965 90.4805,151.8765 87.7955,149.7465 L96.2705,141.2765 C96.9755,140.5715 96.9755,139.4265 96.2705,138.7265 C95.5705,138.0215 94.4305,138.0215 93.7305,138.7265 L85.2505,147.2015 C83.1255,144.5215 81.8005,141.1815 81.8005,137.5015 L81.8005,135.0015 C81.8005,127.1015 84.3205,126.8015 95.0005,126.8015 C95.9955,126.8015 96.8005,125.9965 96.8005,125.0015 C96.8005,124.0065 95.9955,123.1965 95.0005,123.1965 C89.4255,123.1965 84.7955,123.2715 81.8005,125.4765 L81.8005,86.6915 C89.1105,86.4665 91.4355,84.9515 93.4405,83.5865 C94.9055,82.5865 96.0605,81.8015 100.0005,81.8015 C100.9955,81.8015 101.8005,80.9965 101.8005,80.0015 C101.8005,79.0065 100.9955,78.1965 100.0005,78.1965 C94.9505,78.1965 93.1555,79.4265 91.4155,80.6065 C89.7455,81.7365 87.9705,82.9015 81.8005,83.0915 L81.8005,41.6565 C84.6105,45.0115 89.0055,46.8015 95.0005,46.8015 C95.9955,46.8015 96.8005,45.9965 96.8005,45.0015 C96.8005,44.0065 95.9955,43.1965 95.0005,43.1965 C85.8705,43.1965 81.8005,39.1315 81.8005,30.0015 L81.8005,27.5015 C81.8005,18.8415 88.8405,11.8015 97.5005,11.8015 C104.9755,11.8015 111.2805,16.6815 112.7755,23.1965 L100.0005,23.1965 C99.0055,23.1965 98.2005,24.0065 98.2005,25.0015 C98.2005,25.9965 99.0055,26.8015 100.0005,26.8015 L114.4505,26.8015 C119.3755,29.3265 123.2005,36.1215 123.2005,42.5015 C123.2005,43.4515 123.0355,44.4765 122.8155,45.5515 C118.0855,49.5515 114.1705,53.3665 113.3755,58.1965 L100.0005,58.1965 C99.0055,58.1965 98.2005,59.0065 98.2005,60.0015 C98.2005,60.9965 99.0055,61.8015 100.0005,61.8015 L113.2005,61.8015 L113.2005,75.0015 C113.2005,75.9965 114.0055,76.8015 115.0005,76.8015 C115.9955,76.8015 116.8005,75.9965 116.8005,75.0015 L116.8005,60.0015 C116.8005,56.2615 119.6055,53.0365 124.7505,48.6415 C129.9005,51.3365 133.2005,56.6465 133.2005,62.5015 C133.2005,63.6115 133.0555,64.7815 132.7505,66.0715 L132.4105,67.5315 L133.7805,68.1315 C139.5005,70.6365 143.2005,76.2815 143.2005,82.5015 C143.2005,86.3865 141.7205,90.1365 139.0355,93.0665 L138.9155,93.1965 L125.0005,93.1965 C124.0055,93.1965 123.2005,94.0065 123.2005,95.0015 C123.2005,95.9965 124.0055,96.8015 125.0005,96.8015 L139.4355,96.8015 C140.1955,98.6665 140.7005,100.5665 140.7005,102.5015 C140.7005,108.9765 136.6005,114.7165 130.6055,117.0315 M66.8005,152.5265 L66.8005,143.5215 C66.8005,137.6015 62.2055,133.2715 56.6505,128.6165 C55.8905,127.9865 54.7555,128.0815 54.1155,128.8415 C53.4755,129.6065 53.5755,130.7415 54.3405,131.3815 C60.0855,136.1965 63.2005,139.5565 63.2005,143.5215 L63.2005,153.1265 C62.9655,153.1415 62.7405,153.1965 62.5005,153.1965 C54.6905,153.1965 48.0305,147.3265 47.0155,139.5365 L46.8355,138.1665 L45.4655,137.9815 C37.6755,136.9665 31.8005,130.3065 31.8005,122.5015 C31.8005,121.8165 31.9105,121.1665 32.0005,120.5115 L40.7305,116.6465 C41.6405,116.2465 42.0505,115.1815 41.6455,114.2715 C41.2405,113.3615 40.1705,112.9465 39.2705,113.3565 L30.2555,117.3465 C23.7855,115.2765 19.3005,109.2765 19.3005,102.5015 C19.3005,100.5665 19.8005,98.6665 20.5655,96.8015 L35.0005,96.8015 C35.9955,96.8015 36.8005,95.9965 36.8005,95.0015 C36.8005,94.0065 35.9955,93.1965 35.0005,93.1965 L21.0855,93.1965 L20.9655,93.0665 C18.2805,90.1365 16.8005,86.3865 16.8005,82.5015 C16.8005,76.2815 20.5005,70.6365 26.2205,68.1315 L27.5905,67.5315 L27.2505,66.0715 C26.9455,64.7815 26.8005,63.6115 26.8005,62.5015 C26.8005,56.7365 29.9955,51.5065 35.0105,48.7715 L43.6105,59.6915 C45.1755,61.5915 46.5905,63.1365 48.1155,64.3365 L38.7305,73.7265 C38.0255,74.4265 38.0255,75.5715 38.7305,76.2765 C39.0805,76.6265 39.5405,76.8015 40.0005,76.8015 C40.4605,76.8015 40.9205,76.6265 41.2705,76.2765 L51.2705,66.2765 C51.3005,66.2515 51.2855,66.2065 51.3155,66.1765 C52.4105,66.5615 53.6105,66.8015 55.0005,66.8015 L65.0005,66.8015 C65.9955,66.8015 66.8005,65.9965 66.8005,65.0015 C66.8005,64.0065 65.9955,63.1965 65.0005,63.1965 L55.0005,63.1965 C51.7205,63.1965 49.9755,61.7515 46.4155,57.4365 L37.2055,45.7465 C36.9605,44.5915 36.8005,43.5115 36.8005,42.5015 C36.8005,36.8565 39.9505,31.6465 44.8755,28.8765 L48.8455,32.2015 C49.1805,32.4815 49.5905,32.6215 50.0005,32.6215 C50.5105,32.6215 51.0255,32.4015 51.3805,31.9765 C52.0205,31.2115 51.9155,30.0765 51.1555,29.4365 L46.9955,25.9615 C47.7855,17.9715 54.4055,11.8015 62.5005,11.8015 C71.1555,11.8015 78.2005,18.8415 78.2005,27.5015 L78.2005,48.3465 C75.3905,44.9915 70.9955,43.1965 65.0005,43.1965 C64.0055,43.1965 63.2005,44.0065 63.2005,45.0015 C63.2005,45.9965 64.0055,46.8015 65.0005,46.8015 C74.1305,46.8015 78.2005,50.8715 78.2005,60.0015 L78.2005,83.2915 C74.4555,83.6715 72.3705,85.0815 70.6005,86.4115 C68.3205,88.1265 66.5305,89.4665 60.3555,88.2365 C59.3805,88.0315 58.4255,88.6715 58.2355,89.6465 C58.0405,90.6215 58.6705,91.5715 59.6455,91.7615 C61.5205,92.1365 63.1055,92.3015 64.4655,92.3015 C68.7555,92.3015 70.8555,90.7215 72.7605,89.2915 C74.2605,88.1715 75.6655,87.2065 78.2005,86.8865 L78.2005,113.1465 L67.5005,113.1965 C62.2755,113.1965 58.6455,110.2515 56.7055,104.4265 C56.3905,103.4865 55.3755,102.9665 54.4305,103.2915 C53.4905,103.6065 52.9805,104.6265 53.2955,105.5715 C56.5505,115.3415 63.5905,116.8015 67.5055,116.8015 L78.2005,116.7515 L78.2005,137.5015 C78.2005,144.6565 73.3605,150.6415 66.8005,152.5265 M146.8005,82.5015 C146.8005,75.3365 142.8205,68.8015 136.5405,65.4665 C136.7155,64.4365 136.8005,63.4565 136.8005,62.5015 C136.8005,55.3365 132.8205,48.8015 126.5455,45.4665 C126.7155,44.4365 126.8005,43.4565 126.8005,42.5015 C126.8005,34.9665 122.4805,27.1615 116.6055,23.8465 C115.3955,14.9965 107.2105,8.1965 97.5005,8.1965 C89.7255,8.1965 83.0555,12.8415 80.0005,19.4815 C76.9455,12.8415 70.2755,8.1965 62.5005,8.1965 C52.5555,8.1965 44.3405,15.7415 43.3605,25.5565 C37.1555,28.9115 33.2005,35.4515 33.2005,42.5015 C33.2005,43.4565 33.2855,44.4365 33.4555,45.4665 C27.1805,48.8015 23.2005,55.3365 23.2005,62.5015 C23.2005,63.4565 23.2855,64.4365 23.4555,65.4665 C17.1805,68.8015 13.2005,75.3365 13.2005,82.5015 C13.2005,86.8765 14.7155,91.1065 17.4905,94.5515 C16.3055,97.1215 15.7005,99.7865 15.7005,102.5015 C15.7005,110.5515 20.8155,117.7515 28.3155,120.5265 C28.2355,121.2115 28.2005,121.8665 28.2005,122.5015 C28.2005,131.6615 34.7605,139.5315 43.6655,141.3315 C45.4705,150.2415 53.3405,156.8015 62.5005,156.8015 C70.2755,156.8015 76.9455,152.1565 80.0005,145.5165 C80.8805,147.4315 82.0605,149.1715 83.4855,150.6815 C83.5705,150.8865 83.5655,151.1115 83.7305,151.2765 C83.8905,151.4365 84.1205,151.4315 84.3155,151.5165 C87.7755,154.7715 92.3905,156.8015 97.5005,156.8015 C106.6605,156.8015 114.5305,150.2415 116.3355,141.3315 C125.2405,139.5315 131.8005,131.6615 131.8005,122.5015 C131.8005,121.8665 131.7605,121.2115 131.6855,120.5265 C139.1855,117.7515 144.3005,110.5515 144.3005,102.5015 C144.3005,99.7865 143.6955,97.1215 142.5055,94.5515 C145.2855,91.1065 146.8005,86.8765 146.8005,82.5015" id="Fill-2" fill="url(#linearGradient-1)"></path>
        </g>
    </g>
</svg>

<svg xmlns="http://www.w3.org/2000/svg" viewBox="0 0 288 288"><defs><linearGradient x1="109.448%" y1="-6.516%" x2="-9.861%" y2="101.817%" id="a"><stop stop-color="#009C98" offset="0%"/><stop stop-color="#0062FF" offset="100%"/></linearGradient></defs><g fill="none" fill-rule="evenodd"><path fill="#171717" fill-rule="nonzero" d="M0 0h288v288H0z"/><path d="M64 224h160V64H64z"/><path d="M130.606 117.031c-3.08-6.425-7.695-9.035-15.905-8.89l-5.025.055c-6.035 0-7.876-1.91-7.876-8.195 0-.995-.804-1.805-1.8-1.805-.995 0-1.8.81-1.8 1.805 0 8.27 3.43 11.8 11.495 11.8l5.046-.06c7.525-.19 10.684 1.97 13.18 8.035.16.89.28 1.785.28 2.725 0 7.08-4.855 13.175-11.566 15.01-.39-5.315-2.075-9.38-5.4-12.504a1.796 1.796 0 10-2.465 2.615c2.816 2.65 4.14 6.104 4.346 10.925l-.13.99c-1.02 7.79-7.68 13.66-15.486 13.66-3.68 0-7.02-1.32-9.704-3.45l8.474-8.47a1.802 1.802 0 000-2.55 1.79 1.79 0 00-2.54 0l-8.48 8.475c-2.124-2.68-3.45-6.02-3.45-9.7v-2.5c0-7.9 2.52-8.2 13.2-8.2a1.803 1.803 0 000-3.605c-5.575 0-10.204.075-13.2 2.28V86.692c7.31-.225 9.636-1.74 11.64-3.105 1.466-1 2.62-1.785 6.56-1.785a1.803 1.803 0 000-3.605c-5.05 0-6.844 1.23-8.585 2.41-1.67 1.13-3.445 2.294-9.615 2.484V41.657c2.81 3.355 7.206 5.145 13.2 5.145a1.803 1.803 0 000-3.605c-9.13 0-13.2-4.066-13.2-13.196v-2.5c0-8.66 7.04-15.7 15.7-15.7 7.475 0 13.78 4.88 15.275 11.396H100a1.803 1.803 0 000 3.605h14.45c4.925 2.524 8.75 9.32 8.75 15.7 0 .95-.165 1.974-.385 3.05-4.73 4-8.644 7.815-9.44 12.645h-13.374a1.803 1.803 0 000 3.604h13.2v13.2a1.799 1.799 0 103.6 0v-15c0-3.74 2.805-6.965 7.95-11.36 5.15 2.696 8.45 8.006 8.45 13.86 0 1.11-.145 2.28-.45 3.57l-.34 1.46 1.37.6c5.72 2.505 9.42 8.15 9.42 14.37 0 3.885-1.48 7.635-4.165 10.566l-.12.13H125a1.803 1.803 0 000 3.605h14.434c.76 1.864 1.266 3.764 1.266 5.7 0 6.475-4.1 12.215-10.095 14.53M66.8 152.526v-9.005c0-5.92-4.596-10.25-10.15-14.905a1.809 1.809 0 00-2.536.225c-.64.764-.54 1.9.225 2.54 5.745 4.814 8.86 8.174 8.86 12.14v9.605c-.235.014-.46.07-.7.07-7.81 0-14.47-5.87-15.484-13.66l-.18-1.37-1.37-.185c-7.79-1.016-13.666-7.675-13.666-15.48 0-.685.11-1.335.2-1.99l8.73-3.865c.91-.4 1.32-1.466.916-2.376a1.796 1.796 0 00-2.376-.915l-9.015 3.99c-6.47-2.07-10.954-8.07-10.954-14.845 0-1.934.5-3.835 1.265-5.7H35a1.803 1.803 0 000-3.605H21.085l-.12-.13c-2.684-2.93-4.165-6.68-4.165-10.565 0-6.22 3.7-11.865 9.42-14.37l1.37-.6-.34-1.46c-.305-1.29-.45-2.46-.45-3.57 0-5.764 3.195-10.994 8.21-13.73l8.6 10.92c1.566 1.9 2.98 3.445 4.505 4.645l-9.385 9.39A1.802 1.802 0 0040 76.802c.46 0 .92-.176 1.27-.526l10-10c.03-.025.015-.07.045-.1 1.096.385 2.296.626 3.686.626h10a1.803 1.803 0 000-3.605H55c-3.28 0-5.026-1.446-8.585-5.76l-9.21-11.69c-.245-1.155-.406-2.236-.406-3.245 0-5.646 3.15-10.856 8.076-13.626l3.97 3.326a1.797 1.797 0 002.535-.225c.64-.765.535-1.9-.225-2.54l-4.16-3.476c.79-7.99 7.41-14.16 15.505-14.16 8.655 0 15.7 7.04 15.7 15.7v20.845c-2.81-3.354-7.205-5.15-13.2-5.15a1.803 1.803 0 000 3.605c9.13 0 13.2 4.07 13.2 13.2v23.29c-3.745.38-5.83 1.79-7.6 3.12-2.28 1.715-4.07 3.055-10.245 1.826a1.79 1.79 0 00-2.12 1.41 1.793 1.793 0 001.41 2.114c1.874.376 3.46.54 4.82.54 4.29 0 6.39-1.58 8.294-3.01 1.5-1.12 2.905-2.084 5.44-2.404v26.26l-10.7.05c-5.224 0-8.855-2.946-10.794-8.77a1.79 1.79 0 00-2.276-1.136 1.803 1.803 0 00-1.135 2.28c3.255 9.77 10.295 11.23 14.21 11.23l10.696-.05v20.75c0 7.155-4.84 13.14-11.4 15.025m80-70.025c0-7.165-3.98-13.7-10.26-17.035.174-1.03.26-2.01.26-2.964 0-7.166-3.98-13.7-10.255-17.035.17-1.03.254-2.01.254-2.965 0-7.535-4.32-15.34-10.194-18.656-1.21-8.85-9.395-15.65-19.105-15.65-7.776 0-14.446 4.646-17.5 11.286-3.056-6.64-9.726-11.285-17.5-11.285-9.945 0-18.16 7.545-19.14 17.36-6.205 3.355-10.16 9.895-10.16 16.945 0 .954.084 1.934.255 2.965A19.303 19.303 0 0023.2 62.502c0 .954.085 1.934.256 2.964C17.18 68.802 13.2 75.337 13.2 82.501c0 4.375 1.514 8.605 4.29 12.05-1.186 2.57-1.79 5.236-1.79 7.95 0 8.05 5.114 15.25 12.614 18.025a16.96 16.96 0 00-.114 1.975c0 9.16 6.56 17.03 15.465 18.83 1.805 8.91 9.675 15.47 18.835 15.47 7.774 0 14.444-4.644 17.5-11.284a19.205 19.205 0 003.484 5.165c.085.205.08.43.246.595.16.16.39.155.585.24 3.46 3.255 8.075 5.285 13.184 5.285 9.16 0 17.03-6.56 18.835-15.47 8.906-1.8 15.466-9.67 15.466-18.83 0-.635-.04-1.29-.115-1.975 7.5-2.776 12.614-9.975 12.614-18.026 0-2.715-.605-5.38-1.794-7.95 2.78-3.445 4.294-7.675 4.294-12.05" fill="url(#a)" transform="translate(64 64)"/></g></svg>
